icons/money-pound-circle-line.svg

<svg xmlns="http://www.w3.org/2000/svg" width="24" height="24" fill="none"><g clip-path="url(#a)"><g><path fill="#121212" d="M12 22C6.477 22 2 17.523 2 12C2 6.477 6.477 2 12 2C17.523 2 22 6.477 22 12C22 17.523 17.523 22 12 22ZM12 20C14.1217 20 16.1566 19.1571 17.6569 17.6569C19.1571 16.1566 20 14.1217 20 12C20 9.87827 19.1571 7.84344 17.6569 6.34315C16.1566 4.84285 14.1217 4 12 4C9.87827 4 7.84344 4.84285 6.34315 6.34315C4.84285 7.84344 4 9.87827 4 12C4 14.1217 4.84285 16.1566 6.34315 17.6569C7.84344 19.1571 9.87827 20 12 20ZM9 13H8V11H9V10C8.99954 9.18727 9.28193 8.3997 9.79872 7.77244C10.3155 7.14518 11.0345 6.71732 11.8323 6.56228C12.6301 6.40723 13.457 6.53467 14.1711 6.92272C14.8852 7.31077 15.442 7.93525 15.746 8.689L13.76 9.185C13.5847 8.91222 13.3256 8.70365 13.0217 8.59057C12.7178 8.47749 12.3855 8.46601 12.0745 8.55784C11.7635 8.64967 11.4907 8.83986 11.2969 9.09989C11.1032 9.35991 10.999 9.67574 11 10V11H14V13H11V15H16V17H8V15H9V13Z"/></g></g><defs><clipPath id="a"><rect width="24" height="24" fill="white"/></clipPath></defs></svg>

<svg width="24" height="24" fill="none" xmlns="http://www.w3.org/2000/svg"><g clip-path="url(#a)"><path d="M12 22C6.477 22 2 17.523 2 12S6.477 2 12 2s10 4.477 10 10-4.477 10-10 10Zm0-2a8 8 0 1 0 0-16.001A8 8 0 0 0 12 20Zm-3-7H8v-2h1v-1a3.5 3.5 0 0 1 6.746-1.311l-1.986.496A1.499 1.499 0 0 0 11 10v1h3v2h-3v2h5v2H8v-2h1v-2Z" /></g><defs><clipPath id="a"><path fill="#fff" d="M0 0h24v24H0z"/></clipPath></defs></svg>
